Yaru++/mimetypes/16/application-certificate.svg

<svg id="svg81" height="16" viewBox="0 0 4.233125 4.233125" width="16" xmlns="http://www.w3.org/2000/svg">
  <path id="path10-6-7-5-3" d="m1.8834017.13228548-.1925129.24843469-.3058205-.0696088-.0830016.30260543-.30931493.05301228.03929553.3113489-.26561233.16746712.1558177.2726051-.1814558.2563063.2478571.1922373-.0690231.3060962.30261283.082718.053005.3093037.1211562-.015423v1.5514511l.685035-.4983297.685031.4983297v-1.4661544l.014603.00376.0830128-.3026103.3093038-.0532953-.0395861-.311349.2656164-.1671767-.1555348-.2729103.1811579-.2560121-.2478574-.1925092.0693184-.30582047-.3026093-.08300526-.0530122-.30902808-.3113527.03929534-.1674635-.26561987-.2726086.15554223zm.199513.6422077a.74560524.74560524 0 0 1 .7456058.74560202.74560524.74560524 0 0 1 -.7456058.7456021.74560524.74560524 0 0 1 -.7456058-.7456021.74560524.74560524 0 0 1 .7456058-.74560202z" fill="#808080" fill-rule="evenodd" stroke-width=".149121"/>
</svg>

<?xml version="1.0" encoding="UTF-8" standalone="no"?>
<svg
   xmlns:dc="http://purl.org/dc/elements/1.1/"
   xmlns:cc="http://creativecommons.org/ns#"
   xmlns:rdf="http://www.w3.org/1999/02/22-rdf-syntax-ns#"
   xmlns:svg="http://www.w3.org/2000/svg"
   xmlns="http://www.w3.org/2000/svg"
   xmlns:sodipodi="http://sodipodi.sourceforge.net/DTD/sodipodi-0.dtd"
   xmlns:inkscape="http://www.inkscape.org/namespaces/inkscape"
   width="16"
   height="16"
   version="1.1"
   viewBox="0 0 4.233125 4.233125"
   id="svg81"
   sodipodi:docname="application-certificate.svg"
   inkscape:version="0.92.4 (5da689c313, 2019-01-14)">
  <metadata
     id="metadata85">
    <rdf:RDF>
      <cc:Work
         rdf:about="">
        <dc:format>image/svg+xml</dc:format>
        <dc:type
           rdf:resource="http://purl.org/dc/dcmitype/StillImage" />
        <dc:title />
      </cc:Work>
    </rdf:RDF>
  </metadata>
  <sodipodi:namedview
     pagecolor="#ffffff"
     bordercolor="#666666"
     borderopacity="1"
     objecttolerance="10"
     gridtolerance="10"
     guidetolerance="10"
     inkscape:pageopacity="0"
     inkscape:pageshadow="2"
     inkscape:window-width="1225"
     inkscape:window-height="854"
     id="namedview83"
     showgrid="false"
     inkscape:zoom="42.3125"
     inkscape:cx="7.7963255"
     inkscape:cy="8"
     inkscape:window-x="0"
     inkscape:window-y="27"
     inkscape:window-maximized="0"
     inkscape:current-layer="svg81" />
  <defs
     id="defs17">
    <linearGradient
       id="linearGradient4226"
       x1="529.65503"
       x2="-35.310001"
       y1="401.58401"
       y2="119.093"
       gradientTransform="matrix(0,-0.11988932,0.11988589,0,0.36277965,292.5483)"
       gradientUnits="userSpaceOnUse">
      <stop
         style="stop-color:#f2f2f2"
         offset="0"
         id="stop2" />
      <stop
         style="stop-color:#f9f9f9"
         offset="1"
         id="stop4" />
    </linearGradient>
    <linearGradient
       id="linearGradient4358"
       x1="88"
       x2="488"
       y1="88"
       y2="488"
       gradientUnits="userSpaceOnUse">
      <stop
         style="stop-color:#000000;stop-opacity:.58823532"
         offset="0"
         id="stop7" />
      <stop
         style="stop-color:#000000;stop-opacity:0"
         offset=".88"
         id="stop9" />
      <stop
         style="stop-color:#000000"
         offset="1"
         id="stop11" />
    </linearGradient>
    <filter
       id="filter4346"
       width="1.026"
       height="1.022"
       x="-0.0099999998"
       y="-0.0099999998"
       style="color-interpolation-filters:sRGB">
      <feGaussianBlur
         stdDeviation="2.12"
         id="feGaussianBlur14" />
    </filter>
    <clipPath
       clipPathUnits="userSpaceOnUse"
       id="clipPath983">
      <path
         sodipodi:nodetypes="scccssscsss"
         inkscape:connector-curvature="0"
         id="path985"
         d="m 325.09646,237 c -2.80769,0 -3.10979,0.28839 -3.09603,3.10176 V 244 v 3.89824 c -0.0138,2.81337 0.28834,3.10176 3.09603,3.10176 h 5.8075 C 333.71166,251 334,250.71165 334,247.89824 V 244 240.10176 C 334,237.28836 333.71165,237 330.90396,237 Z"
         style="color:#000000;display:inline;overflow:visible;visibility:visible;opacity:1;fill:#46a926;fill-opacity:1;fill-rule:nonzero;stroke:none;stroke-width:2;stroke-miterlimit:4;stroke-dasharray:none;stroke-opacity:1;marker:none;enable-background:accumulate" />
    </clipPath>
    <clipPath
       clipPathUnits="userSpaceOnUse"
       id="clipPath983-3">
      <path
         sodipodi:nodetypes="scccssscsss"
         inkscape:connector-curvature="0"
         id="path985-6"
         d="m 325.09646,237 c -2.80769,0 -3.10979,0.28839 -3.09603,3.10176 V 244 v 3.89824 c -0.0138,2.81337 0.28834,3.10176 3.09603,3.10176 h 5.8075 C 333.71166,251 334,250.71165 334,247.89824 V 244 240.10176 C 334,237.28836 333.71165,237 330.90396,237 Z"
         style="color:#000000;display:inline;overflow:visible;visibility:visible;opacity:1;fill:#46a926;fill-opacity:1;fill-rule:nonzero;stroke:none;stroke-width:2;stroke-miterlimit:4;stroke-dasharray:none;stroke-opacity:1;marker:none;enable-background:accumulate" />
    </clipPath>
  </defs>
  <path
     d="M 1.8834017,0.13228548 1.6908888,0.38072017 1.3850683,0.31111137 1.3020667,0.6137168 0.99275177,0.66672908 1.0320473,0.97807798 0.76643497,1.1455451 0.92225267,1.4181502 0.74079687,1.6744565 0.98865397,1.8666938 0.91963087,2.17279 1.2222437,2.255508 1.2752487,2.5648117 1.3964049,2.5493887 v 1.5514511 l 0.685035,-0.4983297 0.685031,0.4983297 V 2.6346854 l 0.014603,0.00376 L 2.8640867,2.3358351 3.1733905,2.2825398 3.1338044,1.9711908 3.3994208,1.8040141 3.243886,1.5311038 3.4250439,1.2750917 3.1771865,1.0825825 3.2465049,0.77676203 2.9438956,0.69375677 2.8908834,0.38472869 2.5795307,0.42402403 2.4120672,0.15840416 2.1394586,0.31394639 Z m 0.199513,0.6422077 A 0.74560524,0.74560524 0 0 1 2.8285205,1.5200952 0.74560524,0.74560524 0 0 1 2.0829147,2.2656973 0.74560524,0.74560524 0 0 1 1.3373089,1.5200952 0.74560524,0.74560524 0 0 1 2.0829147,0.77449318 Z"
     style="color:#4d4d4d;display:inline;isolation:auto;mix-blend-mode:normal;solid-color:#000000;fill:#808080;fill-opacity:1;fill-rule:evenodd;stroke-width:0.14912108;color-rendering:auto;image-rendering:auto;shape-rendering:auto;enable-background:new"
     id="path10-6-7-5-3"
     inkscape:connector-curvature="0" />
</svg>
